packages/foundations/assets/icons/functional/images/security/lock_closed_24.svg

<svg width="24" height="24" viewBox="0 0 24 24" fill="none" xmlns="http://www.w3.org/2000/svg">
<g clip-path="url(#clip0_187_241)">
<path fill-rule="evenodd" clip-rule="evenodd" d="M12.0006 3.00607C14.6883 3.00607 16.9885 5.0985 16.9987 8.00415C16.9999 8.33344 16.9997 8.66274 16.9983 8.99207C18.1052 8.99261 19.0006 9.88804 19.0006 10.9926V18.9939C19.0006 20.0985 18.1052 20.9939 17.0006 20.9939H6.99933C5.89476 20.9939 4.99933 20.0985 4.99933 18.9939V10.9926C4.99933 9.93824 5.82272 8.99207 7.00233 8.99207C7.00248 8.68537 7.00255 8.35606 7.00255 8.00415C7.00255 5.24379 9.24027 3.00607 12.0006 3.00607ZM17.0006 10.9926H6.99933V18.9939H17.0006V10.9926ZM12.0006 12.9926C12.5135 12.9926 12.9988 13.4099 13.0006 13.9926V15.9926C13.0006 16.5449 12.5529 16.9926 12.0006 16.9926C11.4878 16.9926 11.0025 16.5777 11.0006 15.9926V13.9926C11.0006 13.4403 11.4483 12.9926 12.0006 12.9926ZM12.0006 5.00607C10.404 5.00607 9.01012 6.3465 9.00255 8.00415C9.00105 8.33345 9.00097 8.66276 9.00233 8.99207H14.9983L14.9987 8.00415C14.9987 6.34836 13.6564 5.00607 12.0006 5.00607Z" fill="#1A1C1F"/>
</g>
<defs>
<clipPath id="clip0_187_241">
<rect width="24" height="24" fill="white"/>
</clipPath>
</defs>
</svg>

<svg xmlns="http://www.w3.org/2000/svg" width="24" height="24" fill="none"><g clip-path="url(#a)"><path fill="#1A1C1F" fill-rule="evenodd" d="M12 3.006c2.688 0 4.988 2.093 4.999 4.998v.988c1.106 0 2.002.896 2.002 2v8.002a2 2 0 0 1-2 2H6.999a2 2 0 0 1-2-2v-8.001c0-1.055.824-2 2.003-2v-.989a5 5 0 0 1 4.999-4.998m5 7.987H7v8h10zm-5 2c.514 0 .999.417 1 1v2a1 1 0 1 1-2 0v-2a1 1 0 0 1 1-1m0-7.987c-1.596 0-2.99 1.34-2.997 2.998q-.003.495 0 .988h5.995v-.988a3 3 0 0 0-2.997-2.998" clip-rule="evenodd"/></g><defs><clipPath id="a"><path fill="#fff" d="M0 0h24v24H0z"/></clipPath></defs></svg>
